X:542
T:Reel 542
M:4/4
K:Dmaj
L:1/8
D2AF EFGB|A2AB cAGE|D2AD EFGE|ABGE CDEC|D2AD FGEF|D2Ad cEcE|D2AF GEFD|AFGE FDD2|Addc A2GF|EFGE FDEC|Addc d2ed|cAGE FDD2|Addc A2AG|EFGE FDEC|Addc d2ed|cAGE FDD2|Addc d2ed|cAAB cdec|Addc dfed|cAGE EDD2|Addc dfed|cAAB cde2|fdec dAAB|cAGE EDD2|
